assets/img/braze_icons/users-01.svg

<svg fill="none" height="24" viewBox="0 0 24 24" width="24" xmlns="http://www.w3.org/2000/svg"><g clip-rule="evenodd" fill="#801ed7" fill-rule="evenodd"><path d="m18.0316 14.8768c.1377-.5349.6828-.8569 1.2177-.7192 2.1563.555 3.7507 2.5112 3.7507 4.8424v2c0 .5523-.4477 1-1 1-.5522 0-1-.4477-1-1v-2c0-1.3965-.9551-2.5725-2.2492-2.9055-.5349-.1377-.8569-.6829-.7192-1.2177z"/><path d="m14.5731 2.91554c.2072-.51193.7902-.75894 1.3022-.55172 1.8305.74099 3.1247 2.53624 3.1247 4.63618s-1.2942 3.8952-3.1247 4.6362c-.512.2072-1.095-.0398-1.3022-.5517-.2072-.512.0398-1.09497.5517-1.3022 1.1013-.44578 1.8752-1.52486 1.8752-2.7823s-.7739-2.33652-1.8752-2.7823c-.5119-.20723-.7589-.79022-.5517-1.30216z"/><path d="m7.17898 14c1.54737.0005 3.09472.0005 4.64212 0 1.0906-.0004 1.8348-.0006 2.473.1704 1.7255.4623 3.0732 1.81 3.5356 3.5355.2302.8593.1636 1.7777.1705 2.6582.0009.1069.0026.3231-.0513.5241-.1387.5177-.543.922-1.0606 1.0607-.201.0539-.4173.0521-.5242.0513-4.575-.0365-9.15314-.0365-13.72815 0-.10691.0008-.32313.0026-.52414-.0513-.51764-.1387-.92196-.543-1.06066-1.0607-.053864-.201-.05214-.4172-.051288-.5241.006998-.8783-.059341-1.8002.170548-2.6582.46233-1.7255 1.81007-3.0732 3.53553-3.5355.63822-.171 1.38242-.1708 2.47304-.1704z"/><path d="m4.50004 7c0-2.76142 2.23857-5 5-5 2.76146 0 4.99996 2.23858 4.99996 5s-2.2385 5-4.99996 5c-2.76143 0-5-2.23858-5-5z"/></g></svg>

<svg width="24" height="24" viewBox="0 0 24 24" fill="none" xmlns="http://www.w3.org/2000/svg">
<path fill-rule="evenodd" clip-rule="evenodd" d="M18.0316 14.8768C18.1693 14.3419 18.7144 14.0199 19.2493 14.1576C21.4056 14.7126 23 16.6688 23 19V21C23 21.5523 22.5523 22 22 22C21.4478 22 21 21.5523 21 21V19C21 17.6035 20.0449 16.4275 18.7508 16.0945C18.2159 15.9568 17.8939 15.4116 18.0316 14.8768Z" fill="#801ED7"/>
<path fill-rule="evenodd" clip-rule="evenodd" d="M14.5731 2.91554C14.7803 2.40361 15.3633 2.1566 15.8753 2.36382C17.7058 3.10481 19 4.90006 19 7C19 9.09994 17.7058 10.8952 15.8753 11.6362C15.3633 11.8434 14.7803 11.5964 14.5731 11.0845C14.3659 10.5725 14.6129 9.98953 15.1248 9.7823C16.2261 9.33652 17 8.25744 17 7C17 5.74256 16.2261 4.66348 15.1248 4.2177C14.6129 4.01047 14.3659 3.42748 14.5731 2.91554Z" fill="#801ED7"/>
<path fill-rule="evenodd" clip-rule="evenodd" d="M7.17898 14C8.72635 14.0005 10.2737 14.0005 11.8211 14C12.9117 13.9996 13.6559 13.9994 14.2941 14.1704C16.0196 14.6327 17.3673 15.9804 17.8297 17.7059C18.0599 18.5652 17.9933 19.4836 18.0002 20.3641C18.0011 20.471 18.0028 20.6872 17.9489 20.8882C17.8102 21.4059 17.4059 21.8102 16.8883 21.9489C16.6873 22.0028 16.471 22.001 16.3641 22.0002C11.7891 21.9637 7.21096 21.9637 2.63595 22.0002C2.52904 22.001 2.31282 22.0028 2.11181 21.9489C1.59417 21.8102 1.18985 21.4059 1.05115 20.8882C0.997286 20.6872 0.99901 20.471 0.999862 20.3641C1.00686 19.4858 0.940521 18.5639 1.17041 17.7059C1.63274 15.9804 2.98048 14.6327 4.70594 14.1704C5.34416 13.9994 6.08836 13.9996 7.17898 14Z" fill="#801ED7"/>
<path fill-rule="evenodd" clip-rule="evenodd" d="M4.50004 7C4.50004 4.23858 6.73861 2 9.50004 2C12.2615 2 14.5 4.23858 14.5 7C14.5 9.76142 12.2615 12 9.50004 12C6.73861 12 4.50004 9.76142 4.50004 7Z" fill="#801ED7"/>
</svg>
